lib/healthicons/icons/solid/body/ear.svg

<svg fill="none" height="48" viewBox="0 0 48 48" width="48" xmlns="http://www.w3.org/2000/svg"><path clip-rule="evenodd" d="m12.1538 18c0-6.0751 5.3037-11 11.8461-11s11.846 4.9249 11.846 11c0 3.8069-2.0817 7.1627-5.2507 9.139-2.6881 1.6763-5.5184 4.3149-5.5184 7.7723v.0887c0 3.3137-2.8929 6-6.4615 6s-6.4615-2.6863-6.4615-6v-2h-2.1538v2c0 4.4183 3.8572 8 8.6153 8s8.6153-3.5817 8.6153-8v-.0887c0-2.4038 2.0134-4.5205 4.5654-6.112 3.7393-2.3319 6.2038-6.2981 6.2038-10.7993 0-7.1797-6.268-13-13.9999-13s-13.9999 5.8203-13.9999 13zm10.8462-4c-1.9477 0-3.528 1.3146-3.9112 3.0195l.0278.0014c.8135.0412 1.918.157 3.0382.4635 1.1114.304 2.3119.8155 3.2469 1.6965.9648.909 1.5983 2.1689 1.5983 3.8267 0 .0303-.0014.0605-.0041.0906-.1464 1.609-.5404 2.8395-1.1368 3.762-.6056.9368-1.3862 1.503-2.202 1.8239-.7978.314-1.5982.3817-2.249.3817-.3272 0-.6291-.0174-.8777-.0332l-.0989-.0064c-.1194-.0077-.217-.014-.2999-.018-.0122.021-.0261.0464-.0418.0768-.1011.1968-.1774.4041-.2767.6741-.0639.1739-.1375.3739-.2334.6138-.2099.525-.5109 1.1779-1.0172 1.6993-.5434.5595-1.2837.9278-2.2512.9278-.8379 0-1.5323-.1924-2.0768-.5649-.547-.374-.8601-.8731-1.031-1.3407-.1672-.4572-.2035-.8948-.2035-1.202 0-.1571.0095-.2898.0197-.3868.0051-.0488.0104-.0893.0149-.1201.0023-.0155.0043-.0285.0061-.0391l.0023-.014.001-.0055.0004-.0024.0002-.0011c.0001-.0006.0002-.0011.9839.1787s.9838.1793.9839.1788l.0005-.0027.0005-.0028.0005-.0032c0 .0005-.0003.002-.0005.0032-.0008.0058-.0025.0184-.0045.0379-.0042.0395-.0089.102-.0089.1791 0 .1612.0207.348.0819.5153.0573.1569.1437.2823.2816.3766.1402.0959.4161.2157.9478.2157.4022 0 .6321-.1313.8163-.3211.2214-.228.4054-.5743.595-1.0485.046-.115.0974-.2531.1526-.4015.1303-.3507.2821-.7591.4359-1.0582.0335-.0653.073-.1374.1191-.2129.5569-1.4228 1.4174-3.9151 1.0698-4.9578-.2326-.6979-.6817-1.3957-1.0955-1.9426-.5046-.4228-.8887-.83-1.1205-1.3186-.2863-.6035-.2852-1.2346-.2841-1.8145l.0001-.1034c0-3.2489 2.721-5.8209 6-5.8209s6 2.572 6 5.8209h-2c0-2.0762-1.7562-3.8209-4-3.8209zm-2.8077 14.9192c0 .0005-.003.0043-.0091.01.006-.0076.0091-.0104.0091-.01z" fill="#333" fill-rule="evenodd"/></svg>

<svg width="48" height="48" viewBox="0 0 48 48" fill="none" xmlns="http://www.w3.org/2000/svg">
<path fill-rule="evenodd" clip-rule="evenodd" d="M12.1538 18C12.1538 11.9249 17.4575 7 23.9999 7C30.5423 7 35.8459 11.9249 35.8459 18C35.8459 21.8069 33.7642 25.1627 30.5952 27.139C27.9071 28.8153 25.0768 31.4539 25.0768 34.9113V35C25.0768 38.3137 22.1839 41 18.6153 41C15.0467 41 12.1538 38.3137 12.1538 35V33H10V35C10 39.4183 13.8572 43 18.6153 43C23.3734 43 27.2306 39.4183 27.2306 35V34.9113C27.2306 32.5075 29.244 30.3908 31.796 28.7993C35.5353 26.4674 37.9998 22.5012 37.9998 18C37.9998 10.8203 31.7318 5 23.9999 5C16.268 5 10 10.8203 10 18H12.1538ZM23 14C21.0523 14 19.472 15.3146 19.0888 17.0195L19.1166 17.0209C19.9301 17.0621 21.0346 17.1779 22.1548 17.4844C23.2662 17.7884 24.4667 18.2999 25.4017 19.1809C26.3665 20.0899 27 21.3498 27 23.0076C27 23.0379 26.9986 23.0681 26.9959 23.0982C26.8495 24.7072 26.4555 25.9377 25.8591 26.8602C25.2535 27.797 24.4729 28.3632 23.6571 28.6841C22.8593 28.9981 22.0589 29.0658 21.4081 29.0658C21.0809 29.0658 20.779 29.0484 20.5304 29.0326L20.4315 29.0262C20.3121 29.0185 20.2145 29.0122 20.1316 29.0082C20.1194 29.0292 20.1055 29.0546 20.0898 29.085C19.9887 29.2818 19.9124 29.4891 19.8131 29.7591C19.7492 29.933 19.6756 30.133 19.5797 30.3729C19.3698 30.8979 19.0688 31.5508 18.5625 32.0722C18.0191 32.6317 17.2788 33 16.3113 33C15.4734 33 14.779 32.8076 14.2345 32.4351C13.6875 32.0611 13.3744 31.562 13.2035 31.0944C13.0363 30.6372 13 30.1996 13 29.8924C13 29.7353 13.0095 29.6026 13.0197 29.5056C13.0248 29.4568 13.0301 29.4163 13.0346 29.3855C13.0369 29.37 13.0389 29.357 13.0407 29.3464L13.043 29.3324L13.044 29.3269L13.0444 29.3245L13.0446 29.3234C13.0447 29.3228 13.0448 29.3223 14.0285 29.5021C15.0122 29.6819 15.0123 29.6814 15.0124 29.6809L15.0129 29.6782L15.0134 29.6754L15.0139 29.6722C15.0139 29.6727 15.0136 29.6742 15.0134 29.6754C15.0126 29.6812 15.0109 29.6938 15.0089 29.7133C15.0047 29.7528 15 29.8153 15 29.8924C15 30.0536 15.0207 30.2404 15.0819 30.4077C15.1392 30.5646 15.2256 30.69 15.3635 30.7843C15.5037 30.8802 15.7796 31 16.3113 31C16.7135 31 16.9434 30.8687 17.1276 30.6789C17.349 30.4509 17.533 30.1046 17.7226 29.6304C17.7686 29.5154 17.82 29.3773 17.8752 29.2289C18.0055 28.8782 18.1573 28.4698 18.3111 28.1707C18.3446 28.1054 18.3841 28.0333 18.4302 27.9578C18.9871 26.535 19.8476 24.0427 19.5 23C19.2674 22.3021 18.8183 21.6043 18.4045 21.0574C17.8999 20.6346 17.5158 20.2274 17.284 19.7388C16.9977 19.1353 16.9988 18.5042 16.9999 17.9243L17 17.8209C17 14.572 19.721 12 23 12C26.279 12 29 14.572 29 17.8209H27C27 15.7447 25.2438 14 23 14ZM20.1923 28.9192C20.1923 28.9197 20.1893 28.9235 20.1832 28.9292C20.1892 28.9216 20.1923 28.9188 20.1923 28.9192Z" fill="#333333"/>
</svg>
